public/svg/send.svg

<?xml version="1.0" encoding="UTF-8"?>
<svg width="37px" height="35px" viewBox="0 0 37 35" version="1.1" xmlns="http://www.w3.org/2000/svg" xmlns:xlink="http://www.w3.org/1999/xlink">
    <title>send</title>
    <defs>
        <linearGradient x1="50%" y1="0%" x2="50%" y2="100%" id="linearGradient-1">
            <stop stop-color="#4EB7ED" offset="0%"></stop>
            <stop stop-color="#5C6EDD" offset="100%"></stop>
        </linearGradient>
    </defs>
    <g id="Page-1" stroke="none" stroke-width="1" fill="none" fill-rule="evenodd">
        <g id="Messenger-user-desktop" transform="translate(-1359.000000, -585.000000)" fill="url(#linearGradient-1)" fill-rule="nonzero">
            <g id="send" transform="translate(1359.573171, 585.000000)">
                <path d="M35.1265124,0.300383802 C34.836464,0.0102661487 34.4012888,-0.0789429787 34.0206644,0.073361953 L1.07142433,13.2529339 C0.694422914,13.4037349 0.441972103,13.7627589 0.427479936,14.1686092 C0.413056129,14.5743911 0.639462055,14.9504366 1.00477403,15.1276244 L13.9976852,21.42907 L20.2991801,34.4220206 C20.4710353,34.7763961 20.8299215,35 21.2215518,35 C21.2337198,35 21.2459561,35 21.2581924,34.9993164 C21.6639047,34.9848926 22.0230643,34.732441 22.1737965,34.3554384 L35.3534652,1.40630354 C35.5057697,1.0254045 35.4165608,0.590433095 35.1265124,0.300383802 Z M3.98790454,14.2951426 L30.1439414,3.83279181 L14.5560437,19.4206 L3.98790454,14.2951426 Z M21.1316593,31.4389494 L16.0061491,20.8706414 L31.5941151,5.2828332 L21.1316593,31.4389494 Z" id="Shape"></path>
            </g>
        </g>
    </g>
</svg>

<svg height="35" viewBox="0 0 37 35" width="37" xmlns="http://www.w3.org/2000/svg" xmlns:xlink="http://www.w3.org/1999/xlink"><linearGradient id="a" x1="50%" x2="50%" y1="0%" y2="100%"><stop offset="0" stop-color="#4eb7ed"/><stop offset="1" stop-color="#5c6edd"/></linearGradient><path d="m35.1265124.3003838c-.2900484-.29011765-.7252236-.37932678-1.105848-.22702185l-32.94924007 13.17957195c-.37700142.150801-.62945223.509825-.64394439.9156753-.01442381.4057819.21198212.7818274.57729409.9590152l12.99291117 6.3014456 6.3014949 12.9929506c.1718552.3543755.5307414.5779794.9223717.5779794.012168 0 .0244043 0 .0366406-.0006836.4057123-.0144238.7648719-.2668754.9156041-.643878l13.1796687-32.94913486c.1523045-.38089904.0630956-.81587044-.2269528-1.10591974zm-31.13860786 13.9947588 26.15603686-10.46235079-15.5878977 15.58780819zm17.14375476 17.1438068-5.1255102-10.568308 15.587966-15.5878082z" fill="url(#a)" transform="translate(.573171)"/></svg>
